X: 1
T: Kenneth Murphy
C: \'Eric Favreau
F: http://music.gordfisch.net/montrealsession/assets/abc/quebec.abc 2015-7-17
S: printed copy of unknown origin, from Paul Lizotte 2015-7-20
R: reel
M: 2/4
L: 1/16
K: G
|:\
B2EB edBA | dBAF BAGA | B2EB edBA | Bdef gfed |
BBEB edBA | dBAF BAFD | EFGA Bdef | gfed [1 edBA :|[2 e2ef ||
|:\
gfeg fedf | eBBB dBAF | EB,B,B, EFGA | Bdef gfed |
eBBB egfe | fddc dBAF | EFGA Bdef | gfed [1 e2ef :|[2 edBA |]

%%sep 1 1 500
